svg/color/dimo.svg

<svg xmlns="http://www.w3.org/2000/svg" width="200" height="200" viewBox="0 0 200 200"><path fill="#f9f9f9" fill-rule="evenodd" d="M50.679 54.481c-5.969 2.286-11.286 7.088-14.1 12.737L34 72.393V147h11.907l.296-36.25c.276-33.673.432-36.449 2.195-39.051 5.323-7.853 17.908-7.533 22.335.568 1.535 2.808 1.833 6.99 2.267 31.814l.5 28.581 2.866 3.754c5.32 6.97 12.76 9.704 20.634 7.584 8.335-2.244 10.562-5.61 27.43-41.474 8.531-18.136 16.194-33.774 17.03-34.75 2.034-2.376 7.058-2.258 9.54.224 1.931 1.931 2 3.333 2 40.5V147h13.106l-.303-39.75-.303-39.75-2.741-4.663c-6.614-11.251-21.46-12.991-30.498-3.575-1.962 2.044-8.808 15.328-18.569 36.032-8.504 18.036-16.258 33.674-17.232 34.75-2.407 2.66-6.048 2.458-9.005-.499L85 127.091l-.044-26.796c-.047-28.735-.372-31.04-5.279-37.474-5.937-7.784-19.935-11.81-28.998-8.34"/><path fill="#1c1c1c" fill-rule="evenodd" d="M80.633 1.494C70.941 3.502 64.702 5.681 55.5 10.271 44.552 15.732 39.812 19.1 30.643 27.932 20.89 37.326 15.407 44.898 9.556 57.056 2.053 72.645.621 79.53.621 100s1.432 27.355 8.935 42.944c5.851 12.158 11.334 19.73 21.087 29.124 9.554 9.203 14.528 12.657 26.583 18.458 15.412 7.417 22.351 8.853 42.774 8.853 14.922 0 18.678-.323 25.5-2.195 8.829-2.422 23.944-9.35 31.274-14.335 6.8-4.623 19.725-17.351 24.782-24.405C189.848 146.88 199 124.296 199 115.399c0-1.255.45-2.559 1-2.899.584-.361 1-6.03 1-13.618 0-8.412-.353-12.782-1-12.382-.561.346-1-.436-1-1.781 0-8.287-8.607-30.398-16.151-41.493-4.623-6.8-17.351-19.725-24.405-24.782-8.204-5.883-23.223-12.976-32.944-15.559C115.096.121 90.884-.63 80.633 1.494M50.679 54.481c-5.969 2.286-11.286 7.088-14.1 12.737L34 72.393V147h11.907l.296-36.25c.276-33.673.432-36.449 2.195-39.051 5.323-7.853 17.908-7.533 22.335.568 1.535 2.808 1.833 6.99 2.267 31.814l.5 28.581 2.866 3.754c5.32 6.97 12.76 9.704 20.634 7.584 8.335-2.244 10.562-5.61 27.43-41.474 8.531-18.136 16.194-33.774 17.03-34.75 2.034-2.376 7.058-2.258 9.54.224 1.931 1.931 2 3.333 2 40.5V147h13.106l-.303-39.75-.303-39.75-2.741-4.663c-6.614-11.251-21.46-12.991-30.498-3.575-1.962 2.044-8.808 15.328-18.569 36.032-8.504 18.036-16.258 33.674-17.232 34.75-2.407 2.66-6.048 2.458-9.005-.499L85 127.091l-.044-26.796c-.047-28.735-.372-31.04-5.279-37.474-5.937-7.784-19.935-11.81-28.998-8.34M.392 100c0 7.425.157 10.463.35 6.75s.192-9.787 0-13.5c-.193-3.713-.35-.675-.35 6.75"/></svg>

<svg xmlns="http://www.w3.org/2000/svg" width="200" height="200" viewBox="0 0 200 200" version="1.1"><path d="M 50.679 54.481 C 44.710 56.767, 39.393 61.569, 36.579 67.218 L 34 72.393 34 109.696 L 34 147 39.953 147 L 45.907 147 46.203 110.750 C 46.479 77.077, 46.635 74.301, 48.398 71.699 C 53.721 63.846, 66.306 64.166, 70.733 72.267 C 72.268 75.075, 72.566 79.257, 73 104.081 L 73.500 132.662 76.366 136.416 C 81.686 143.386, 89.126 146.120, 97 144 C 105.335 141.756, 107.562 138.390, 124.430 102.526 C 132.961 84.390, 140.624 68.752, 141.460 67.776 C 143.494 65.400, 148.518 65.518, 151 68 C 152.931 69.931, 153 71.333, 153 108.500 L 153 147 159.553 147 L 166.106 147 165.803 107.250 L 165.500 67.500 162.759 62.837 C 156.145 51.586, 141.299 49.846, 132.261 59.262 C 130.299 61.306, 123.453 74.590, 113.692 95.294 C 105.188 113.330, 97.434 128.968, 96.460 130.044 C 94.053 132.704, 90.412 132.502, 87.455 129.545 L 85 127.091 84.956 100.295 C 84.909 71.560, 84.584 69.255, 79.677 62.821 C 73.740 55.037, 59.742 51.011, 50.679 54.481" stroke="none" fill="#f9f9f9" fill-rule="evenodd"/><path d="M 80.633 1.494 C 70.941 3.502, 64.702 5.681, 55.500 10.271 C 44.552 15.732, 39.812 19.100, 30.643 27.932 C 20.890 37.326, 15.407 44.898, 9.556 57.056 C 2.053 72.645, 0.621 79.530, 0.621 100 C 0.621 120.470, 2.053 127.355, 9.556 142.944 C 15.407 155.102, 20.890 162.674, 30.643 172.068 C 40.197 181.271, 45.171 184.725, 57.226 190.526 C 72.638 197.943, 79.577 199.379, 100 199.379 C 114.922 199.379, 118.678 199.056, 125.500 197.184 C 134.329 194.762, 149.444 187.834, 156.774 182.849 C 163.574 178.226, 176.499 165.498, 181.556 158.444 C 189.848 146.880, 199 124.296, 199 115.399 C 199 114.144, 199.450 112.840, 200 112.500 C 200.584 112.139, 201 106.470, 201 98.882 C 201 90.470, 200.647 86.100, 200 86.500 C 199.439 86.846, 199 86.064, 199 84.719 C 199 76.432, 190.393 54.321, 182.849 43.226 C 178.226 36.426, 165.498 23.501, 158.444 18.444 C 150.240 12.561, 135.221 5.468, 125.500 2.885 C 115.096 0.121, 90.884 -0.630, 80.633 1.494 M 50.679 54.481 C 44.710 56.767, 39.393 61.569, 36.579 67.218 L 34 72.393 34 109.696 L 34 147 39.953 147 L 45.907 147 46.203 110.750 C 46.479 77.077, 46.635 74.301, 48.398 71.699 C 53.721 63.846, 66.306 64.166, 70.733 72.267 C 72.268 75.075, 72.566 79.257, 73 104.081 L 73.500 132.662 76.366 136.416 C 81.686 143.386, 89.126 146.120, 97 144 C 105.335 141.756, 107.562 138.390, 124.430 102.526 C 132.961 84.390, 140.624 68.752, 141.460 67.776 C 143.494 65.400, 148.518 65.518, 151 68 C 152.931 69.931, 153 71.333, 153 108.500 L 153 147 159.553 147 L 166.106 147 165.803 107.250 L 165.500 67.500 162.759 62.837 C 156.145 51.586, 141.299 49.846, 132.261 59.262 C 130.299 61.306, 123.453 74.590, 113.692 95.294 C 105.188 113.330, 97.434 128.968, 96.460 130.044 C 94.053 132.704, 90.412 132.502, 87.455 129.545 L 85 127.091 84.956 100.295 C 84.909 71.560, 84.584 69.255, 79.677 62.821 C 73.740 55.037, 59.742 51.011, 50.679 54.481 M 0.392 100 C 0.392 107.425, 0.549 110.463, 0.742 106.750 C 0.934 103.037, 0.934 96.963, 0.742 93.250 C 0.549 89.537, 0.392 92.575, 0.392 100" stroke="none" fill="#1c1c1c" fill-rule="evenodd"/></svg>
